dist/icons/svgs/caret-left-outline.svg

<svg xmlns="http://www.w3.org/2000/svg" width="24" height="24" fill="currentcolor" class="icon-caret-left-outline" viewBox="0 0 24 24">
  <path d="M9.10938 12L12.625 15.5156V8.52341L9.10938 12ZM7.35156 11.1406L12.3516 6.1406C12.7031 5.78903 13.25 5.67185 13.7188 5.86716C14.1875 6.06247 14.5 6.53122 14.5 6.99997V17C14.5 17.5078 14.1875 17.9765 13.7188 18.1718C13.25 18.3672 12.7031 18.25 12.3516 17.8984L7.35156 12.8984C6.84375 12.4297 6.84375 11.6093 7.35156 11.1406Z"/>
</svg>

<svg xmlns="http://www.w3.org/2000/svg" width="24" height="24" fill="currentColor" class="icon-caret-left-outline" viewBox="0 0 24 24">
  <path d="m9.11 12 3.515 3.516V8.523zm-1.758-.86 5-5a1.26 1.26 0 0 1 1.367-.273c.469.196.781.664.781 1.133v10c0 .508-.312.977-.781 1.172a1.26 1.26 0 0 1-1.367-.274l-5-5a1.205 1.205 0 0 1 0-1.757"/>
</svg>
